X:1
T:I Hear a Voice, ’Tis Soft and Sweet
T:I Hear a Voice, ’Tis Soft and Sweet
T:Beardsley Van de Water
T:Robert Fleming Sample (1829-1905)
T:Public Domain Courtesy of the Cyber Hymnal™
C:Beardsley Van de Water
Z:Public Domain
Z:Courtesy of the Cyber Hymnal™
%%score ( 1 2 ) ( 3 4 )
L:1/8
Q:1/4=108
M:4/4
K:F
V:1 treble 
V:2 treble 
V:3 bass 
V:4 bass 
V:1
 [Fc]2 | [Fd]2 [FB]2 [Fc]2 [FA]2 | [CF]3 D [CF]2 [EG]2 | [FA]2 [FB]2 [Fc]2 [FA]2 | %4
w: 1.~I|hear a voice, ’tis|soft and sweet, It|bids my sin- sick|
w: 2.~When|wea- ry with my|load of guilt, I’ll|not for- get that|
w: 3.~My|soul is trou- bled|like the sea, The|surg- ing bil- lows|
 [FA]3 [FG] !fermata![EG]2 [EG]2 | [FG]3 [FA] [FG]2 [Fd]2 | [Ec]3 E [EG]2 [EG]2 | %7
w: soul re- joice; The|same was heard in|Sa- lem’s street, And|
w: “Christ is all”; For|me His pre- cious|blood was spilt; He|
w: roll a- round; But|He who calmed far|Gal- i- lee Doth|
 [FG]3 [FA] [FG]2 [Fd]2 | [Ec]3 E [EG]2 C2 | [EA]4 [EG]4 | !fermata![EB]8 || %11
w: in the moun- tain’s|cool re- treat, My|Sav- ior’s|voice.|
w: sweet- ly says, “Come,|if thou wilt”; How|glad the|call!|
w: kind- ly say, “Peace|be to thee”; How|blest the|sound!|
[M:6/8]"^Refrain" [FA][F^G][FA] [Ec]2 [Ec] | (c3 A3) | [FA][F^G][FA] [Ec]2 [Ec] | %14
w: |||
w: Sweet- er than chim- ing|bells, *|Soft- er than even- ing|
w: |||
 [_Ec]3- [Ec]2 [EF] | [DF]2 [FB]!>(! [^Fd]2!>)! [Fc] | [Ac]3 [GB]3 |"^rall." (A^G)[FA] [EB]2 [CE] | %18
w: ||||
w: rills, * The|voice that tells of|par- don—|Par- * don, peace, and|
w: ||||
 [CF]6 |] %19
w: |
w: Heav’n.|
w: |
V:2
 x2 | x8 | x3 D x4 | x8 | x8 | x8 | x3 E x4 | x8 | x3 E x C2 x | x8 | x8 ||[M:6/8] x6 | F6 | x6 | %14
 x6 | x6 | x6 | F2 x4 | x6 |] %19
V:3
 [F,A,]2 | [F,B,]2 [F,G,]2 [F,A,]2 [F,C]2 | [F,A,]3 [F,B,] [F,A,]2 [C,C]2 | %3
 [F,C]2 [G,C]2 [A,C]2 [F,C]2 | [D,C]3 [D,=B,] !fermata![C,C]2 [C,C]2 | %5
 [G,=B,]3 [G,C] [G,B,]2 [G,B,]2 | [C,C]3 [C,G,] [C,C]2 [C,C]2 | [G,=B,]3 [G,C] [G,B,]2 [G,B,]2 | %8
 [C,C]3 [C,G,] [C,C]2 [C,C]2 | [C,C]4 [C,B,]4 | (!fermata!G,4 C4) || %11
[M:6/8] [F,C][F,=B,][F,C] [G,_B,]2 [G,B,] | (A,3 C3) | [F,C][F,=B,][F,C] [G,_B,]2 [G,B,] | %14
 [F,A,]3- [F,A,]2 [F,A,] | B,2 [B,D]!>(! [A,D]2!>)! [A,D] | [G,_E]3 [G,,D]3 | %17
 (C=B,)[C,C] [C,G,]2 [C,_B,] | [F,A,]6 |] %19
V:4
 x2 | x8 | x8 | x8 | x8 | x8 | x8 | x8 | x8 | x8 | C,8 ||[M:6/8] x6 | F,6 | x6 | x6 | B,2 x4 | x6 | %17
 C,2 x4 | x6 |] %19

